X:1
T:Jamais en ce monde
T:Jamais en ce monde
T:anonymus
C:anonymus
%%score [ 1 2 3 4 ]
L:1/8
Q:1/4=120
M:2/2
K:F
V:1 treble nm="Soprano" snm="S"
V:2 treble nm="Alto" snm="A"
V:3 treble-8 nm="Tenor" snm="T"
V:4 bass nm="Bass" snm="B"
V:1
 G4 B2 c2 | d2 e2 f2 e2 | d2 c2 c2 B2 | A2 G4 F2 | G4 z2 d2 | c2 B2 A2 G2 | F2 E2 D2 f2 | %7
w: Ja- mais en|ce mon- de n'au-|ray, en ce mon-|de n'au- *|ray re-|gret qu'a u- ne|seul- le- ment, re-|
 e2 d2 c2 B2 | A2 G4 F2 | G4 z4 | d4 d2 e2 | f4 e2 d2- | d2 c2 B2 GA | Bc d4 c2 | d4 z4 | z8 | %16
w: gret qu'a- u- ne|seul- * le-|ment|du sur- plus|me de- por-||* * * te-|ray||
 g4 f3 e | d2 c2 B2 A2- | AG G4 F2 | G2 B2 A4 | z8 | z4 g4 | f3 e d2 c2 | B2 A3 G G2- | %24
w: fai- re _|_ ne le veulx|_ _ aul- *|* tre- ment||fai-|re _ _ ne|le veulx _ aul-|
"^#" G2 F2 G4- | G8 |] %26
w: * tre- ment.|_|
V:2
 D4 G4- | G2 G2 F2 G2 | A4 G3 F | E4 D2 D2- | DC B,2 A,2 G,2 | z2 G2 F2 E2 | D2 C2 B,2 A,2 | %7
w: Ja- mais|_ en ce mon-|de n'au- *||* * * * ray|re- gret qu'a|u- ne seul- le-|
 G,2 D2 FCDE |"^b" F2 D2 E2 D2 | B,2 D2 E2 F2- | FE D4 C2 | D2 F2 G2 B2- | B2 A2 G2 E2 | G4 A4 | %14
w: ment [qu'a u- * * *||* * ne seul-|* * * le-|ment] du sur- plus-|* me de- por-|* te-|
 F2 A2 A2 G2 | F2 E3 D D2- |"^#" D2 C2 D4 | A3 G F3 E | D2 C2 D4 | B,3 C D2 D2 | G2 G2 F2 E2- | %21
w: ray fai- re ne|le veulx _ aul-|||* * tre-|ment _ _ fai-|re ne le veulx|
"^#" E2 D4 C2 | D4 A3 G | F3 E D2 C2 | D4 D4 | F8 |] %26
w: _ aul- *|||tre- ment.|_|
V:3
 z4 G4 | B2 c2 d2 e2 | f3 e d4 | c3 B A4 | G4 z4 | z2 d2 c2 B2 | A2 G3 F F2 | G4 A2 B2 | %8
w: Ja-|mais en ce mon-|de _ _|n'au- * *|ray|re- gret qu'a|u- ne seul- le|ment re- gret|
 c2 B2 c2 A2 | G2 B2 B2 c2 | d3 c B2 G2 | A2 d2 c2 d2 | e4 d2 c2 | d4 e4 | d2 f2 e2 d2 | %15
w: qu'a u- ne seul-|le- ment du sur-|plus _ _ me|de- por- * *|te- ray, de-|por- te|ray fai- re ne|
 c3 B A2 B2 | G4 A2 f2 | f3 e d2 c2 | B2 G2 A4 | G2 g4 f2 | e2 d4 c2 | G2 B2 G4 | A2 f2 f3 e | %23
w: le veulx aul- *|tre- ment, fai-|re ne le veulx|aul- * tre-|ment, fai- re|ne le veulx|aul- * tre-|ment, fai- re ne|
 d2 c2 B2 G2 | A4 G4 | A8 |] %26
w: le veulx aul- *|tre- met|_|
V:4
 G,4 G,2 C,2 | G,2 E,2 D,2 C,2 | F,4 G,4 |"^#" C,4 D,4 | z2 D2 C2 B,2 | A,2 G,2 A,F, G,2 | %6
w: Ja- mais en|ce mon- * de|n'au- *|ray _|re- gret qu'a|u- ne seul- * *|
 D,2 E,C, D,4 | z2 B,2 A,2 G,2 | F,2 G,2 C,2 D,2 |"^#" G,2 G,2 G,2 A,2 | B,3 A, G,2 E,2 | %11
w: * le- * ment|[re- gret qu'a|u- ne seul- le-|ment] du sur- plus|me de- por- te-|
 D,4 z2 G,2 | G,2 A,2 B,2 C2 | G,2 B,2 A,4 | z2 D2 C2 B,2 | A,3 G, F,2 G,2 | E,4 D,2 D2- | %17
w: ray, du|sur- plus me de-|por- te- ray|fai- re ne|le veulx aul- *|tre- ment[ fai-|
 DC A,2 B,2 F,2 |"^b" G,2 E,2 D,4 | G,4 z2 D2 | C2 B,2 A,3 G, | F,2 G,2 E,4 | D,2 D3 C A,2 | %23
w: * * re ne le|veulx aul- tre-|ment,] fai-|re ne le veulx|aul- * tre-|ment, [fai- re ne|
"^b" B,2 F,2 G,2 E,2 | D,4 D,4- | D,8 |] %26
w: le- veulx au- *|tre- ment]|_|

